X: 17872
T: Horse Keane's
R: hornpipe
M: 4/4
K: Gmajor
dc|:"G"(3BdB "g"Ad GA "g"(3B^cd|"C"eE "c"ED EG "c"FE|"G"DE"g"GA BD"g"dB|"D"BA"d"AB c2"d"BA|
"G"Bd"g"Ad GA "g"(3B^cd|"C"eE "c"ED EG "c"FE|"G"DE"g"GB "D"AD"d"FA|1 "G"G2"g"GF G2"g" dc:|2 "G"G2"g"GF GA "g"Bd||
|:"C"e2 "c"ef ga "c"(3gfe|"G"db"g"gd Bd "g"(3GAB|"C"cC"c"Gc "G"BA"g"GA|"D"BA"d"AG AD"d"GA|
"G"(3BdB "g"Ad GA "g"(3B^cd|"C"eE "c"ED EG "c"FE|"G"DE"g"GB "D"AD"d"FA|1 "G"G2 "g"GF GA "g"Bd:|2 "G"G2"g"GF "G"G2 dc||

